X: 29
T: las Chasse de la Garde
%R: jig
B: Stewart "A Select Collection of Airs, Jigs, Marches and Reels", ca.1784, p.14 #29
F: http://imslp.org/wiki/A_Select_Collection_of_Airs,_Jigs,_Marches_and_Reels_%28Various%29
Z: 2017 John Chambers <jc:trillian.mit.edu>
N: The two "D.C." symbols are written on the staff. This seems to just duplicate the segno symbols.
N: The last note of bar 7 is hidden in the page fold; transcribed to match bar 3.
N: The last strain has only 7 bars.
M: 6/8
L: 1/8
K: D
!segno!A |\
AAA FDd | dfd cAa | a2a fdd | dcd e2A |\
AAA FDd | dfd cAa | a2a fdd |
fge "_Fine"Hd2 :|\
A |\
A2=c BGB | BdB AFA | A2A GEG | GBG F2A |\
A2=c BGB |
BdB AFA | ABc def | g2f e2 !segno!|] "^D.C."y6 [| F |\
FFF F2B | dcB cFc |
edc dBf | faf gee | ege fdd | dfd efg | d2c B2 !segno!|] "^D.C."y6
